X:1
T:Hymn to St. Rita of Cascia
T:Harm. fr. Andris Solims
T:Hymn to St. Rita of Cascia
T:(May 22, Patron of impossible cases)
C:Harm. fr.
C:Andris Solims
%%score [ ( 1 2 ) ( 3 4 ) ]
L:1/8
Q:1/4=80
M:3/4
K:D
V:1 treble nm="SOPRANO ALTO"
V:2 treble 
V:3 bass nm="TENOR BASS"
V:4 bass 
V:1
!mf!"^Andante" DD E | F3 A FD | E D2 E EF | G3 B GF | E3!<(! F F!<)!G | A3 F ED | D G2 B AG | %7
w: 1. Glo- rious|name, our own St.|Ri- ta, o Glo- rious|name, sweet name of|1. Through- out the|years thy name for-|got- ten, thy chil- dren|
w: 2. price- less|gifts, what end- less|trea- sure now flo- wing|from that bound- less|2. In all our|joys, in all our|sor- rows no prayer of|
 F3 E EE | A3!f! A AA | B3 B AG | A F2!mf! D DE |"^rit." F3 A!>(! GE!>)! | !fermata!D3 |] %13
w: now thy grace im-|1. O Glo- rious|name, our own St.|Ri- ta, o Glo- rious|name, sweet name of|love.|
w: ours shall thou ig-|2. O Glo- rious|name, our own St.|Ri- ta, o Glo- rious|name, sweet name of|love.|
[M:3/4]!mf!"^Andante"[Q:1/4=80] D"^or other variant with alternative finale:"D E | F3 A FD | %15
w: 1. Glo- rious|name, our own St.|
w: 2. price- less|gifts, what end- less|
 E D2 E EF | G3 B GF | E3!<(! F F!<)!G | A3 F ED | D G2 B AG | F3 E EE | A3!f! A AA | B3 B AG | %23
w: Ri- ta, o Glo- rious|name, sweet name of|1. Through- out the|years thy name for-|got- ten, thy chil- dren|now thy grace im-|1. O Glo- rious|name, our own St.|
w: trea- sure now flo- wing|from that bound- less|2. In all our|joys, in all our|sor- rows no prayer of|ours shall thou ig-|2. O Glo- rious|name, our own St.|
 A F2!mf! D DE |"^rit." F3 A!>(! GE!>)! | !fermata!D3 |] %26
w: Ri- ta, o Glo- rious|name, sweet name of|love.|
w: Ri- ta, o Glo- rious|name, sweet name of|love.|
V:2
 A,B, C | D3 D DB, | C D2 E E^D | E3 E E^D | E3 D DE | D3 D C=C | B, D2 G FE | D3 C B,D | C3 D EF | %9
 G3 G FE | F D2 B, _B,C | D3 F EC | A,3 |][M:3/4] A,B, C | D3 D DB, | C D2 E E^D | E3 E E^D | %17
 E3 D DE | D3 D C=C | B, D2 G FE | D3 C B,D | C3 D EF | G3 G FE | F D2 B, _B,B, | D3 D CA, | A,3 |] %26
V:3
 F,F, G, | A,3 A, B,B, | A, F,2 G, G,A, | B,3 B, B,A, | G,3 A, =CB, | A,3 F, G,F, | G, B,2 B, DC | %7
 A,3 A, ^G,B, | A,3 A, A,=C | B,3 D B,C | D A,2 F, G,G, | A,3 B, B,G, | F,3 |][M:3/4] F,F, G, | %14
 A,3 A, B,B, | A, F,2 G, G,A, | B,3 B, B,A, | G,3 A, =CB, | A,3 F, G,F, | G, B,2 B, DC | %20
 A,3 A, ^G,B, | A,3 A, A,=C | B,3 D B,C | D A,2 F, G,G, | A,3 F, E,G, | F,3 |] %26
V:4
 D,B,, A,, | D,3 F, G,^G, | A, D,2 E, E,E, | E,3 G, B,B,, | E,3 D, D,E, | F,3 D, D,D, | %6
 G, G,2 E, F,G, | A,3 A, E,E, | A,,3 B,, C,D, | G,3 G, E,E, | D, D,2 B,, _B,,A,, | D,3 B,, E,A,, | %12
 !fermata!D,3 |][M:3/4] D,B,, A,, | D,3 F, G,^G, | A, D,2 E, E,E, | E,3 G, B,B,, | E,3 D, D,E, | %18
 F,3 D, D,D, | G, G,2 E, F,G, | A,3 A, E,E, | A,,3 B,, C,D, | G,3 G, E,E, | D, D,2 B,, _B,,B,, | %24
 A,,3 A,, A,,C, | !fermata!D,3 |] %26

